v/0.4.11/design-resources/icons/wf_doctype-icons/twfr-file-book-copy.svg

<?xml version="1.0" encoding="utf-8"?>
<!-- Generated by IcoMoon.io -->
<!DOCTYPE svg PUBLIC "-//W3C//DTD SVG 1.1//EN" "http://www.w3.org/Graphics/SVG/1.1/DTD/svg11.dtd">
<svg version="1.1" xmlns="http://www.w3.org/2000/svg" xmlns:xlink="http://www.w3.org/1999/xlink" width="768" height="768" viewBox="0 0 768 768">
<g>
</g>
	<path d="M672 0h-512v64h-64v64.084c-53 0.458-96 43.636-96 96.729 0 32.738 16.787 62.209 42.62 79.836-25.695 17.428-42.62 46.855-42.62 80.164 0 32.738 16.787 62.209 42.62 79.836-25.695 17.428-42.62 46.856-42.62 80.165 0 45.859 32.593 86.078 77.469 95.188 5.231 0 11.838 0 18.531 0v64l32 32h384v-64h-384v-183.897c16.222 8.939 28.439 24.592 32.328 43.615 1.766 8.657 10.297 14.282 18.875 12.469 8.656-1.765 14.234-10.219 12.469-18.875-7-34.186-31.928-61.092-63.672-71.983v-125.227c16.222 8.939 28.439 24.592 32.328 43.615 1.766 8.656 10.297 14.281 18.875 12.469 8.656-1.765 14.234-10.219 12.469-18.875-7-34.186-31.928-61.092-63.672-71.983v-125.227c16.222 8.939 28.439 24.592 32.328 43.615 1.766 8.656 10.297 14.281 18.875 12.469 8.656-1.766 14.234-10.219 12.469-18.875-7-34.186-31.928-61.092-63.672-71.983v-37.33h480v320h32v-320l-32-32h-416v-32h480v416h32v-416l-32-32zM96 608.056c-4.951 0.019-9.514 0.045-12.801 0.080-30.209-3.148-51.2-32.849-51.2-63.324 0-35.451 28.641-64.274 64-64.729v127.973zM96 448.084c-3.51 0.032-6.859 0.643-10.271 1.039-0.655-0.225-1.187-0.655-1.885-0.795-30.047-6.094-51.844-32.813-51.844-63.515 0-35.451 28.641-64.274 64-64.729v128zM96 288.084c-3.51 0.031-6.859 0.643-10.271 1.040-0.655-0.225-1.187-0.655-1.885-0.795-30.047-6.094-51.844-32.813-51.844-63.516 0-35.451 28.641-64.274 64-64.729v128z" fill="#595959"></path>
	<path d="M736 544h-96v-96h-96v96h-96v96h96v96h96v-96h96z" fill="#595959"></path>
</svg>

<svg xmlns="http://www.w3.org/2000/svg" width="768" height="768" viewBox="0 0 768 768"><path stroke="#449FDB" d="M0 0"/><path d="M672 0H160v64H96v64.084c-53 .458-96 43.636-96 96.73 0 32.737 16.787 62.208 42.62 79.835C16.925 322.075 0 351.502 0 384.81c0 32.738 16.787 62.21 42.62 79.836C16.925 482.076 0 511.504 0 544.813 0 590.673 32.593 630.89 77.47 640c5.23 0 11.837 0 18.53 0v64l32 32h384v-64H128V488.106c16.222 8.94 28.44 24.592 32.328 43.615 1.766 8.657 10.297 14.282 18.875 12.47 8.656-1.766 14.234-10.22 12.47-18.876-7-34.186-31.93-61.092-63.673-71.983V328.106c16.222 8.94 28.44 24.592 32.328 43.615 1.766 8.655 10.297 14.28 18.875 12.468 8.656-1.765 14.234-10.22 12.47-18.875-7-34.186-31.93-61.092-63.673-71.983V168.103c16.222 8.94 28.44 24.592 32.328 43.615 1.766 8.656 10.297 14.28 18.875 12.47 8.656-1.767 14.234-10.22 12.47-18.876-7-34.186-31.93-61.092-63.673-71.983V96h480v320h32V96l-32-32H192V32h480v416h32V32L672 0zM96 608.056c-4.95.02-9.514.045-12.8.08-30.21-3.148-51.2-32.85-51.2-63.324 0-35.45 28.64-64.274 64-64.73v127.974zm0-159.972c-3.51.032-6.86.643-10.27 1.04-.656-.226-1.188-.656-1.886-.796C53.797 442.234 32 415.515 32 384.813c0-35.45 28.64-64.274 64-64.73v128zm0-160c-3.51.03-6.86.643-10.27 1.04-.656-.225-1.188-.655-1.886-.795C53.797 282.233 32 255.514 32 224.81c0-35.45 28.64-64.274 64-64.73v128zM736 544h-96v-96h-96v96h-96v96h96v96h96v-96h96z" fill="#595959"/></svg>
